X:10
T:Rout is out - ginger jack
C:From ‘Ginger Jack’, Sept 12 1905
C:[this appears to be written in C. Sharp’s hand, and the music notation is pasted in – Ed.]
%%VWML:SBG-1-1-228-0
F:http://www.vwml.org/record/SBG/1/1/228
Z:Original Sibleius Transcription by Martin and Shan Graebe
M:C
L:1/8
K:G
Bc | d2 ed c2 dB | G2>F2 D2 E=F | G2 AB c2 BA | G6 :||de | =fedc B2 c2 |
(d2 g2) g2 de | =f2 dc B2 c2 | d6 Bc | dded c2 dB |
G2 GF D2 E=F "Sometimes F#" | G2 AB c2 BA | G6 z2||


